dist/assets/images/header/menuCross.svg

<svg width="26" height="26" viewBox="0 0 26 26" fill="none" xmlns="http://www.w3.org/2000/svg">
<path d="M15.0237 13L25.2777 0.777344C25.4495 0.574219 25.305 0.265625 25.0394 0.265625H21.9222C21.7386 0.265625 21.5628 0.347656 21.4417 0.488281L12.9847 10.5703L4.52766 0.488281C4.41047 0.347656 4.23469 0.265625 4.04719 0.265625H0.930001C0.664376 0.265625 0.519844 0.574219 0.691719 0.777344L10.9456 13L0.691719 25.2227C0.653218 25.2679 0.628517 25.3233 0.62055 25.3822C0.612583 25.4411 0.621683 25.501 0.646771 25.5549C0.67186 25.6088 0.711882 25.6543 0.762087 25.6862C0.812291 25.718 0.870568 25.7347 0.930001 25.7344H4.04719C4.23078 25.7344 4.40656 25.6523 4.52766 25.5117L12.9847 15.4297L21.4417 25.5117C21.5589 25.6523 21.7347 25.7344 21.9222 25.7344H25.0394C25.305 25.7344 25.4495 25.4258 25.2777 25.2227L15.0237 13Z" fill="black"/>
</svg>

<svg width="26" height="26" fill="none" xmlns="http://www.w3.org/2000/svg"><path d="M15.024 13L25.278.777a.31.31 0 00-.239-.511h-3.117a.636.636 0 00-.48.222L12.985 10.57 4.528.488a.624.624 0 00-.48-.222H.93a.31.31 0 00-.238.511L10.946 13 .692 25.223a.31.31 0 00.238.511h3.117c.184 0 .36-.082.48-.222l8.458-10.082 8.457 10.082c.117.14.293.222.48.222h3.117a.31.31 0 00.239-.511L15.024 13z" fill="#000"/></svg>
